X: 306
T: NORAH THE PRIDE OF KILDARE
T: Nora an blath g-Cille-Dara
B: O'Neill's 306
M: 6/8
L: 1/8
Z: 1999 by John Chambers <jc@trillian.mit.edu>
N: "Slow"
N: "Collected by F.O'Neill"
K:D
A \
|dcd BAz/F/|dcd BAz/F/|GAB Ade|fed e2A|
|dcd BAF|dcd cBAF|GAB Ade/d/|cBc|d2||
||A \
|BGd AFd|GFE GFDA|Bcd AHff/e/|dec B2HA|
|fed edB|Adc/d/ e2Ha|fed edB|AHf3e/d/c/ d2||
